X: 1
T: Motel Henry
C: \251Jean-Claude Mirandette 
O: Qu\'ebec
R: reel
Z: 2011, 2017 John Chambers <jc:trillian.mit.edu>
S: printed MS of unknown origin
S: handout at Roaring Jelly practice Jan 2017
M: C|
L: 1/8
K: A
|:\
"A"[c3E3]c- cfec | "E"BABc dcBA |"A"[c3E3]c- cfec | "E"BABc  "A"AE [E2A2] |
"A"[c3E3]c- cfec | "E"BABc dcBA |"A"[c3E3]c- cfec | "E"BABc  "A"A2 [E2A2] :|
|:"D"f3f- fgaf | "A"e2(3cBA e2(3cBA |\
"E"B2GB EBGB | "A"ABcd eA[e2A2] |
"D"fAAf- fgaf | "A"e2(3cBA e2(3cBA |\
"D"fgaf "C#m"ecAa- | "Bm"afec "E"AE[A2E2] :|

#include "LeftHeader.h"
% %footer 04/02/18 For use only by Roaring Jelly members
% %text Set 135 NEFFA 2018
% %scale .9
$SmallLMargin
$SmallRMargin
